NotoEmoji/emoji_u1f6a9.svg

<svg enable-background="new 0 0 128 128" viewBox="0 0 128 128" xmlns="http://www.w3.org/2000/svg"><path d="m8.04 3.32c-2.73.73-3.69 3.34-3.33 6.14.35 2.81 13.69 110.04 14.04 112.15s2.46 2.98 4.91 2.81c2.46-.18 4.39-2.11 4.21-4.21-.17-2.11-14.21-111.8-14.57-113.38s-2.63-4.21-5.26-3.51z" fill="#b0b0b0"/><path d="m22.43 117.14c-.74 0-1.39-.55-1.49-1.31l-13.82-107.44c-.1-.82.48-1.57 1.3-1.68.82-.1 1.57.47 1.68 1.3l13.82 107.44c.11.82-.47 1.57-1.3 1.68-.06.01-.13.01-.19.01z" fill="#c8c8c8"/><path d="m20.98 73.61s.21 2.14.85 3.33c.46.87 1.9.31 3.06-.73 1.22-1.1 7.22-5.26 16.64-7.47 11.57-2.7 26.2-7.27 35.25-13.22 12.85-8.44 16.09-15.01 21.91-22.27 5.87-7.34 9.55-10.77 15.18-13.83 5.68-3.09 7.96-3.55 8.69-3.55s1.84-1.96.12-2.81c-1.71-.86-14.32-1.71-14.32-1.71l-84.08 47.73z" fill="#cc1935"/><path d="m12.65 7.92 8.32 65.72s4.31-5.05 13.58-8.32c10.77-3.79 25.33-6 32.68-9.79s17.26-11.63 23.87-19.34 11.16-14.41 18.11-19.34c5.87-4.16 13.46-3.79 13.46-3.79s-5.75-4.41-16.28-3.3c-12.17 1.27-27.76 10.76-33.9 9.67-11.74-2.09-13.45-10.29-25.08-12.86-18.33-4.05-34.76 1.35-34.76 1.35z" fill="#fe2c23"/><g fill="#ff5f5f"><path d="m25.5 53.08c1.58-.18 3.18-9.79 7.47-17.13s11.01-13.46 13.58-15.18c2.57-1.71 5.63-3.92 1.59-6.12s-11.26-3.92-18.48-3.92c-7 0-8.81.73-9.18 1.59s1.71 23.01 2.45 28.15c.74 5.15 1.47 12.73 2.57 12.61z"/><path d="m59.89 52.47c.13.77 11.99-4.41 17.87-11.14 4.79-5.48 6.73-11.87 11.14-16.4s8.93-9.06 8.93-9.06-12.97 1.59-20.19 10.16-9.67 14.07-11.26 16.64c-1.59 2.58-6.61 9.06-6.49 9.8z"/></g></svg>

<?xml version="1.0" encoding="utf-8"?>
<!-- Generator: Adobe Illustrator 25.2.3, SVG Export Plug-In . SVG Version: 6.00 Build 0)  -->
<svg version="1.1" id="Layer_2" xmlns="http://www.w3.org/2000/svg" xmlns:xlink="http://www.w3.org/1999/xlink" x="0px" y="0px"
	 viewBox="0 0 128 128" style="enable-background:new 0 0 128 128;" xml:space="preserve">
<path style="fill:#B0B0B0;" d="M8.04,3.32C5.31,4.05,4.35,6.66,4.71,9.46c0.35,2.81,13.69,110.04,14.04,112.15
	c0.35,2.11,2.46,2.98,4.91,2.81c2.46-0.18,4.39-2.11,4.21-4.21C27.7,118.1,13.66,8.41,13.3,6.83S10.67,2.62,8.04,3.32z"/>
<g>
	<path style="fill:#C8C8C8;" d="M22.43,117.14c-0.74,0-1.39-0.55-1.49-1.31L7.12,8.39C7.02,7.57,7.6,6.82,8.42,6.71
		c0.82-0.1,1.57,0.47,1.68,1.3l13.82,107.44c0.11,0.82-0.47,1.57-1.3,1.68C22.56,117.14,22.49,117.14,22.43,117.14z"/>
</g>
<path style="fill:#CC1935;" d="M20.98,73.61c0,0,0.21,2.14,0.85,3.33c0.46,0.87,1.9,0.31,3.06-0.73c1.22-1.1,7.22-5.26,16.64-7.47
	c11.57-2.7,26.2-7.27,35.25-13.22c12.85-8.44,16.09-15.01,21.91-22.27c5.87-7.34,9.55-10.77,15.18-13.83
	c5.68-3.09,7.96-3.55,8.69-3.55c0.73,0,1.84-1.96,0.12-2.81c-1.71-0.86-14.32-1.71-14.32-1.71L24.28,59.08L20.98,73.61z"/>
<path style="fill:#FE2C23;" d="M12.65,7.92l8.32,65.72c0,0,4.31-5.05,13.58-8.32c10.77-3.79,25.33-6,32.68-9.79
	S84.49,43.9,91.1,36.19c6.61-7.71,11.16-14.41,18.11-19.34c5.87-4.16,13.46-3.79,13.46-3.79s-5.75-4.41-16.28-3.3
	c-12.17,1.27-27.76,10.76-33.9,9.67C60.75,17.34,59.04,9.14,47.41,6.57C29.08,2.52,12.65,7.92,12.65,7.92z"/>
<path style="fill:#FF5F5F;" d="M25.5,53.08c1.58-0.18,3.18-9.79,7.47-17.13s11.01-13.46,13.58-15.18c2.57-1.71,5.63-3.92,1.59-6.12
	s-11.26-3.92-18.48-3.92c-7,0-8.81,0.73-9.18,1.59c-0.37,0.86,1.71,23.01,2.45,28.15C23.67,45.62,24.4,53.2,25.5,53.08z"/>
<path style="fill:#FF5F5F;" d="M59.89,52.47c0.13,0.77,11.99-4.41,17.87-11.14c4.79-5.48,6.73-11.87,11.14-16.4
	c4.41-4.53,8.93-9.06,8.93-9.06s-12.97,1.59-20.19,10.16c-7.22,8.57-9.67,14.07-11.26,16.64C64.79,45.25,59.77,51.73,59.89,52.47z"
	/>
</svg>
